!!!ONB: MCCC : IJH0404_03 : Extracted Monophonic Melody
!!!COM: Haydn, Joseph
!!!OPR: String Quartet in B minor
!!!OMV: 3
!!!SCT: Hob.III:68 ; Op.64 No.2
!!!ODT: 1790///
**kern
*thru
*>A
*clefG2
*k[f#c#]
*b:
*M3/4
4f#
2r
=1
4b
4cc#
4dd
=2
4cc#
8cc#
8b
4cc#
=3
4cc#
8cc#
8b
4cc#
=4
4ff#
8ff#
8ee
8dd
8cc#
=5
4b
4r
4dd
=6
4cc#
8cc#
8b
4cc#
=7
4cc#
8cc#
8b
4cc#
=8
4dd
8dd
8ee
8ff#
8gg
=9
4aa
4aa
4aa
=10
4aa
4aa
4aa
=11
8aa
8aa
8aa
8aa
8aa
8aa
=12
8aa
8bb
8ccc#
8ddd
8eee
8fff#
=13
4ggg
4eee
4ccc#
=14
4ddd
4r
=15
*>A
4f#
2r
=16
4b
4cc#
4dd
=17
4cc#
8cc#
8b
4cc#
=18
4cc#
8cc#
8b
4cc#
=19
4ff#
8ff#
8ee
8dd
8cc#
=20
4b
4r
4dd
=21
4cc#
8cc#
8b
4cc#
=22
4cc#
8cc#
8b
4cc#
=23
4dd
8dd
8ee
8ff#
8gg
=24
4aa
4aa
4aa
=25
4aa
4aa
4aa
=26
8aa
8aa
8aa
8aa
8aa
8aa
=27
8aa
8bb
8ccc#
8ddd
8eee
8fff#
=28
4ggg
4eee
4ccc#
=29
4ddd
4r
=30
*>B
4B
2r
=31
4c
4A
4A
=32
4B
4G
4b
=33
4cc
8cc
8b
4cc
=34
4b
4r
4b
=35
4dd
8dd
8cc#
4dd
=36
4cc#
4r
4cc#
=37
2cc#
4dd
=38
4cc#
4r
4ff#
=39
4gg
4r
4ee#
=40
4ff#
4r
4cc#
=41
4dd
4r
4e#
=42
4f#
4r
4f#
=43
4b
4cc#
4dd
=44
4cc#
8cc#
8b
4cc#
=45
4cc#
8cc#
8b
4cc#
=46
4ff#
8ff#
8ee
8dd
8cc#
=47
4bb
8bb
8aa
8gg
8ff#
=48
4eee
8eee
8ddd
8ccc#
8bb
=49
4aa#
4r
4r
=50
2.r
=51
2.r
=52
2.r
=53
8a#
8a#
8a#
8a#
8a#
8a#
=54
8a#
8a#
8a#
8a#
8a#
8a#
=55
8a#
8a#
8a#
8a#
8a#
8a#
=56
8b
8cc#
8dd
8ee
8ff#
8gg
=57
8ff#
8gg
8ff#
8ee
8dd
8cc#
=58
4b
4r
=59
*>B
4B
2r
=60
4c
4A
4A
=61
4B
4G
4b
=62
4cc
8cc
8b
4cc
=63
4b
4r
4b
=64
4dd
8dd
8cc#
4dd
=65
4cc#
4r
4cc#
=66
2cc#
4dd
=67
4cc#
4r
4ff#
=68
4gg
4r
4ee#
=69
4ff#
4r
4cc#
=70
4dd
4r
4e#
=71
4f#
4r
4f#
=72
4b
4cc#
4dd
=73
4cc#
8cc#
8b
4cc#
=74
4cc#
8cc#
8b
4cc#
=75
4ff#
8ff#
8ee
8dd
8cc#
=76
4bb
8bb
8aa
8gg
8ff#
=77
4eee
8eee
8ddd
8ccc#
8bb
=78
4aa#
4r
4r
=79
2.r
=80
2.r
=81
2.r
=82
8a#
8a#
8a#
8a#
8a#
8a#
=83
8a#
8a#
8a#
8a#
8a#
8a#
=84
8a#
8a#
8a#
8a#
8a#
8a#
=85
8b
8cc#
8dd
8ee
8ff#
8gg
=86
8ff#
8gg
8ff#
8ee
8dd
8cc#
=87
4b
4r
=88
*>C
*k[f#c#g#d#a#]
*B:
4ff#
2r
=89
2bb
4ddd#
=90
2ccc#
4ggg#
=91
2fff#
4eee
=92
4ddd#
4r
4ddd#
=93
2ccc#
4bb
=94
4aa#
4bb
4bb#
=95
2ccc#
8bb
8gg#
=96
4ff#
4r
=97
*>C
4ff#
2r
=98
2bb
4ddd#
=99
2ccc#
4ggg#
=100
2fff#
4eee
=101
4ddd#
4r
4ddd#
=102
2ccc#
4bb
=103
4aa#
4bb
4bb#
=104
2ccc#
8bb
8gg#
=105
4ff#
4r
=106
*>D
4ff#
2r
=107
2fff#
8ddd#
8bb#
=108
4ccc#
8eee
8ccc#
4aa#
=109
4bb
8ddd#
8bb
8gg#
8ee#
=110
4ff#
4r
4ff#
=111
2bb
4ddd#
=112
2ccc#
4ggg#
=113
2fff#
4eee
=114
2ddd#
4fff#
=115
2bbb
4fff#
=116
2ggg#
8eee
8ccc#
=117
2bb
4ccc#
=118
4bb
4r
=119
*>D
4ff#
2r
=120
2fff#
8ddd#
8bb#
=121
4ccc#
8eee
8ccc#
4aa#
=122
4bb
8ddd#
8bb
8gg#
8ee#
=123
4ff#
4r
4ff#
=124
2bb
4ddd#
=125
2ccc#
4ggg#
=126
2fff#
4eee
=127
2ddd#
4fff#
=128
2bbb
4fff#
=129
2ggg#
8eee
8ccc#
=130
2bb
4ccc#
=131
4bb
4r
==
*-
